assets/flags/KY.svg

<?xml version="1.0" encoding="UTF-8"?>
<svg width="21px" height="15px" viewBox="0 0 21 15" version="1.1" xmlns="http://www.w3.org/2000/svg" xmlns:xlink="http://www.w3.org/1999/xlink">
    <!-- Generator: sketchtool 46 (44423) - http://www.bohemiancoding.com/sketch -->
    <title>KY</title>
    <desc>Created with sketchtool.</desc>
    <defs>
        <linearGradient x1="50%" y1="0%" x2="50%" y2="100%" id="linearGradient-1">
            <stop stop-color="#FFFFFF" offset="0%"></stop>
            <stop stop-color="#F0F0F0" offset="100%"></stop>
        </linearGradient>
        <linearGradient x1="50%" y1="0%" x2="50%" y2="100%" id="linearGradient-2">
            <stop stop-color="#07319C" offset="0%"></stop>
            <stop stop-color="#00247E" offset="100%"></stop>
        </linearGradient>
        <linearGradient x1="50%" y1="0%" x2="50%" y2="100%" id="linearGradient-3">
            <stop stop-color="#DB1E36" offset="0%"></stop>
            <stop stop-color="#D51931" offset="100%"></stop>
        </linearGradient>
        <path d="M0,3.5 L0,0 L5,0 L5,3.5 C5,6 2.5,7 2.5,7 C2.5,7 0,6 0,3.5 Z" id="path-4"></path>
        <linearGradient x1="50%" y1="0%" x2="50%" y2="100%" id="linearGradient-6">
            <stop stop-color="#125FBA" offset="0%"></stop>
            <stop stop-color="#0C50A1" offset="100%"></stop>
        </linearGradient>
    </defs>
    <g id="Symbols" stroke="none" stroke-width="1" fill="none" fill-rule="evenodd">
        <g id="KY">
            <rect id="FlagBackground" fill="url(#linearGradient-1)" x="0" y="0" width="21" height="15"></rect>
            <rect id="Mask-Copy" fill="url(#linearGradient-2)" x="0" y="0" width="21" height="15"></rect>
            <path d="M3,3.22996746 L-1.3516287,-0.5 L0.660232527,-0.5 L4.16023253,2 L4.85660189,2 L9.5,-0.902123821 L9.5,0.25 C9.5,0.552509227 9.33308555,0.876533554 9.08215972,1.05576629 L6,3.25730895 L6,3.77003254 L9.13722049,6.45907867 C9.59934261,6.85518335 9.34102897,7.5 8.75,7.5 C8.50478614,7.5 8.2052751,7.40393402 8.00092153,7.25796718 L4.83976747,5 L4.14339811,5 L-0.5,7.90212382 L-0.5,6.24269105 L3,3.74269105 L3,3.22996746 Z" id="Rectangle-36" fill="url(#linearGradient-1)" fill-rule="nonzero"></path>
            <path d="M3.5,3 L-4.4408921e-16,7.10542736e-15 L0.5,7.10542736e-15 L4,2.5 L5,2.5 L9,7.10542736e-15 L9,0.25 C9,0.388071187 8.91348267,0.561798096 8.79154062,0.648899555 L5.5,3 L5.5,4 L8.8118248,6.83870697 C8.91575109,6.92778665 8.8840332,7 8.75,7 L8.75,7 C8.61192881,7 8.41348267,6.9382019 8.29154062,6.85110044 L5,4.5 L4,4.5 L-4.4408921e-16,7 L-4.4408921e-16,6.5 L3.5,4 L3.5,3 Z" id="Rectangle-36" fill="url(#linearGradient-3)"></path>
            <path d="M-4.4408921e-16,2.5 L-4.4408921e-16,4.5 L3.5,4.5 L3.5,7.00461102 C3.5,7.2782068 3.71403503,7.5 4.00468445,7.5 L4.99531555,7.5 C5.27404508,7.5 5.5,7.2842474 5.5,7.00461102 L5.5,4.5 L9.00952148,4.5 C9.28040529,4.5 9.5,4.28596497 9.5,3.99531555 L9.5,3.00468445 C9.5,2.72595492 9.28494263,2.5 9.00952148,2.5 L5.5,2.5 L5.5,7.10542736e-15 L3.5,7.10542736e-15 L3.5,2.5 L-4.4408921e-16,2.5 Z" id="Rectangle-2" fill="url(#linearGradient-1)"></path>
            <polygon id="Rectangle-36" fill="url(#linearGradient-3)" points="-4.4408921e-16 3 4 3 4 2.5 4 7.10542736e-15 5 7.10542736e-15 5 2.5 5 3 9 3 9 4 5 4 5 4.5 5 7 4 7 4 4.5 4 4 -4.4408921e-16 4"></polygon>
            <ellipse id="Oval-180" fill="#FAD051" cx="15.5" cy="4" rx="1.5" ry="1"></ellipse>
            <g id="Rectangle-1105" transform="translate(13.000000, 4.000000)">
                <mask id="mask-5" fill="white">
                    <use xlink:href="#path-4"></use>
                </mask>
                <use id="Mask" fill="url(#linearGradient-1)" xlink:href="#path-4"></use>
                <polygon id="Rectangle-1106" fill="#CF142C" mask="url(#mask-5)" points="8.97060204e-14 0 5 0 5 1 3 1 2 1 8.97060204e-14 1"></polygon>
                <path d="M1.37667655e-13,6 L5,6 L5,7 L3,7 L2,7 L1.37667655e-13,7 L1.37667655e-13,6 Z M1.37667655e-13,4 L5,4 L5,5 L3,5 L2,5 L1.37667655e-13,5 L1.37667655e-13,4 Z M1.37667655e-13,2 L5,2 L5,3 L3,3 L2,3 L1.37667655e-13,3 L1.37667655e-13,2 Z" id="Rectangle-1106" fill="url(#linearGradient-6)" mask="url(#mask-5)"></path>
            </g>
        </g>
    </g>
</svg>

<svg width="21" height="15" xmlns="http://www.w3.org/2000/svg" xmlns:xlink="http://www.w3.org/1999/xlink"><defs><linearGradient x1="50%" y1="0%" x2="50%" y2="100%" id="a"><stop stop-color="#FFF" offset="0%"/><stop stop-color="#F0F0F0" offset="100%"/></linearGradient><linearGradient x1="50%" y1="0%" x2="50%" y2="100%" id="b"><stop stop-color="#07319C" offset="0%"/><stop stop-color="#00247E" offset="100%"/></linearGradient><linearGradient x1="50%" y1="0%" x2="50%" y2="100%" id="c"><stop stop-color="#DB1E36" offset="0%"/><stop stop-color="#D51931" offset="100%"/></linearGradient><linearGradient x1="50%" y1="0%" x2="50%" y2="100%" id="f"><stop stop-color="#125FBA" offset="0%"/><stop stop-color="#0C50A1" offset="100%"/></linearGradient><path d="M0 3.5V0h5v3.5C5 6 2.5 7 2.5 7S0 6 0 3.5z" id="d"/></defs><g fill="none" fill-rule="evenodd"><path fill="url(#a)" d="M0 0h21v15H0z"/><path fill="url(#b)" d="M0 0h21v15H0z"/><path d="M3 3.23-1.352-.5H.66L4.16 2h.697L9.5-.902V.25c0 .303-.167.627-.418.806L6 3.257v.513l3.137 2.69c.462.395.204 1.04-.387 1.04-.245 0-.545-.096-.75-.242L4.84 5h-.697L-.5 7.902v-1.66l3.5-2.5V3.23z" fill="url(#a)" fill-rule="nonzero"/><path d="M3.5 3 0 0h.5L4 2.5h1L9 0v.25a.537.537 0 0 1-.208.399L5.5 3v1l3.312 2.839c.104.089.072.161-.062.161a.898.898 0 0 1-.458-.149L5 4.5H4L0 7v-.5L3.5 4V3z" fill="url(#c)"/><path d="M0 2.5v2h3.5v2.505c0 .273.214.495.505.495h.99a.496.496 0 0 0 .505-.495V4.5h3.51a.49.49 0 0 0 .49-.505v-.99a.495.495 0 0 0-.49-.505H5.5V0h-2v2.5H0z" fill="url(#a)"/><path fill="url(#c)" d="M0 3h4V0h1v3h4v1H5v3H4V4H0z"/><ellipse fill="#FAD051" cx="15.5" cy="4" rx="1.5" ry="1"/><g transform="translate(13 4)"><mask id="e" fill="#fff"><use xlink:href="#d"/></mask><use fill="url(#a)" xlink:href="#d"/><path fill="#CF142C" mask="url(#e)" d="M0 0h5v1H0z"/><path d="M0 6h5v1H0V6zm0-2h5v1H0V4zm0-2h5v1H0V2z" fill="url(#f)" mask="url(#e)"/></g></g></svg>
